svgs/lnreader.svg

<svg width="192" height="192" viewBox="0 0 192 192" fill="none" xmlns="http://www.w3.org/2000/svg">
<path d="M101.924 20.6058C106.677 21.3421 112.025 24.1323 114.786 27.3101C115.869 28.5502 116.079 29.0927 117.267 34.3632C117.547 35.7195 117.162 38.781 116.254 42.3076C115.275 46.1054 115.065 48.8568 115.73 49.1281C116.568 49.5156 122.44 47.7717 125.481 46.2604L128.242 44.8653L131.842 45.8728C136.63 47.2292 138.587 48.353 139.566 50.2907C140.335 51.7633 140.579 54.011 140.16 55.2899C139.671 56.6075 137.923 57.2275 134.463 57.15C131.597 57.1113 130.828 57.2275 128.347 58.2739C126.774 58.8939 123.978 59.824 122.125 60.289C120.273 60.7928 118.036 61.6454 117.162 62.2267C115.345 63.3893 113.842 65.9082 113.563 68.2334C113.388 69.6285 113.458 69.7448 114.506 70.1711C115.135 70.4036 116.219 70.5973 116.918 70.5973C118.735 70.6361 121.042 71.915 122.79 73.8526C124.537 75.829 124.642 76.7204 123.419 78.503C122.755 79.4718 122.125 79.8981 121.042 80.0919C119.155 80.4794 119.26 80.4407 116.603 81.3707C115.345 81.797 111.675 82.7271 108.46 83.4247L102.553 84.7035L100.246 84.0447C97.3804 83.2309 93.9553 81.4095 92.9068 80.1694L92.1029 79.2393L94.3048 78.193C95.5281 77.6117 97.3105 76.4491 98.2891 75.6353C99.9668 74.2402 100.107 74.0077 100.246 72.07C100.596 68.1947 99.3726 67.0708 94.8291 67.1096C91.299 67.1871 89.202 66.4895 86.2312 64.3581C85.0079 63.4668 83.2953 62.4204 82.4216 61.9942L80.8488 61.2191L82.2119 60.289C84.6934 58.6226 88.5729 57.0338 93.0815 55.8712C98.2542 54.5148 100.037 53.7397 100.771 52.5384C101.155 51.8796 101.295 49.4769 101.47 42.1525L101.679 32.658L99.4425 30.0228C96.9261 27.0776 95.4931 24.5586 94.7941 21.9622C94.4446 20.7221 94.4096 20.2183 94.7242 20.0633C95.1786 19.8695 98.7435 20.1408 101.924 20.6058ZM48.3447 32.2705C49.533 32.6968 51.3155 33.6269 52.2941 34.3632C55.3348 36.6496 60.7172 42.3463 61.4163 44.0514C63.3036 48.5856 60.9269 53.0034 56.4882 53.1972C55.4397 53.2747 53.8669 53.1584 52.9932 53.0034C51.4204 52.7321 51.3854 52.7322 49.533 54.7861C48.4845 55.9099 47.5758 56.6462 47.5059 56.4137C47.436 56.1812 47.6807 55.0186 48.1001 53.8947C48.4845 52.7321 48.9039 50.9883 49.0088 50.0194C49.2534 47.9655 48.6243 46.3766 46.1428 42.4626C44.0807 39.2461 42.5429 35.487 42.2633 33.0068L42.0536 30.9916L44.1157 31.2629C45.2341 31.4179 47.1564 31.883 48.3447 32.2705ZM62.9541 57.0338C65.4006 57.9638 66.554 59.0489 66.8336 60.7153C67.288 63.4668 65.4356 67.2258 63.4434 67.6134C59.6338 68.4272 58.9348 68.5047 58.8299 68.1171C58.6202 67.4583 56.663 68.3497 49.3233 72.3413C42.508 76.1003 38.7333 77.6504 32.9664 79.1231C29.751 79.9369 29.5762 79.9369 27.0947 79.3168C23.9841 78.5418 20.4891 76.5654 20.1046 75.364C19.86 74.5889 19.9648 74.4339 21.2929 74.0851C26.8151 72.535 33.3859 69.4348 38.6983 65.8695C39.7818 65.1719 43.871 62.8855 47.7855 60.8316C56.7329 56.1424 59.0396 55.5611 62.9541 57.0338ZM152.358 80.1694C154.14 81.1382 157.286 84.471 158.789 86.9512C159.593 88.2688 159.662 88.6563 159.453 90.8265C158.963 95.5931 157.565 97.1433 148.653 102.956C142.641 106.87 140.859 107.529 139.042 106.483C138.482 106.173 137.923 105.514 137.818 105.049C137.644 104.313 137.434 104.274 135.931 104.429C135.022 104.506 133.17 105.049 131.807 105.63C130.479 106.173 129.29 106.638 129.22 106.638C129.116 106.638 130.793 104.661 132.96 102.259C137.469 97.2208 142.502 90.439 142.362 89.5864C142.222 88.8113 140.51 88.9276 133.03 90.2065C124.223 91.7178 117.687 93.2292 111.535 95.2444C104.615 97.4533 100.037 98.8097 96.8562 99.4685C94.7592 99.9335 94.13 99.9335 92.3126 99.4297C89.6214 98.6546 88.6777 97.9571 89.202 97.027C89.6913 96.1357 97.0659 91.9116 101.575 89.9352C112.269 85.2461 133.345 79.5493 144.214 78.4255C147.5 78.0767 149.387 78.4643 152.358 80.1694ZM63.3036 82.6884C64.0725 82.8821 65.0861 83.5022 65.5404 84.0447C66.8336 85.5561 66.9734 86.7962 66.0647 89.0051C65.121 91.2528 64.422 91.9116 63.024 91.9116C61.7308 91.9116 58.5852 93.423 58.5852 94.043C58.5852 95.1669 52.4339 96.6395 47.401 96.717C44.2904 96.7557 43.906 96.6782 41.809 95.5156C40.5507 94.8181 38.8381 93.578 38.0343 92.7642L36.4965 91.2915L39.9566 89.8189C41.8439 89.0051 45.5836 87.145 48.2748 85.7111C50.966 84.2772 54.0417 82.8821 55.0902 82.6496C56.1387 82.4171 57.327 82.1458 57.7115 82.0683C58.6202 81.8745 61.4862 82.1846 63.3036 82.6884ZM81.7226 94.3918C83.5051 95.0894 86.4409 97.9183 87.2448 99.6622C88.4331 102.22 88.4331 104.429 87.2797 109.506C86.5807 112.567 85.9166 114.66 85.2526 115.706C83.9594 117.799 81.7226 119.039 79.311 119.039C77.2139 119.039 76.9693 118.729 76.2004 115.357C75.9557 114.272 75.5014 112.606 75.1518 111.598L74.5926 109.777L75.8858 106.25C76.6198 104.351 77.5634 102.22 78.0178 101.522C78.9964 100.089 79.0663 98.4996 78.3324 96.1744C78.0528 95.2831 77.8081 94.3918 77.8081 94.198C77.8081 93.6942 80.2546 93.8105 81.7226 94.3918ZM64.6317 103.77C66.0297 104.506 66.7637 105.165 67.1482 106.056C68.6161 109.583 67.1132 111.947 62.2551 113.613C61.4862 113.885 59.8085 114.776 58.5503 115.59C55.5445 117.566 54.531 117.876 50.6864 117.876C46.4923 117.876 43.871 116.791 41.04 113.885C38.8032 111.598 38.8381 110.784 41.2148 109.816C42.1934 109.389 45.4788 107.955 48.4496 106.638C58.8998 101.987 60.7872 101.677 64.6317 103.77ZM113.982 103.731C115.799 104.545 118.176 107.219 118.98 109.312C120.378 112.916 120.343 114.35 118.526 121.558C116.708 128.843 115.869 133.222 115.031 140.314C114.471 144.887 114.471 145.12 115.065 146.399C115.415 147.135 115.834 147.716 115.974 147.716C116.149 147.716 116.254 147.91 116.254 148.142C116.254 149.538 120.553 152.211 125.131 153.723C130.304 155.35 143.55 156.436 149.072 155.661C156.412 154.614 156.517 154.498 157.391 149.499C157.74 147.561 158.125 146.205 158.369 146.282C160.152 147.057 160.257 147.019 160.501 145.623C160.711 144.228 161.34 143.686 161.34 144.848C161.34 145.236 161.55 145.352 162.004 145.197C162.493 145.042 162.703 145.236 162.878 145.933C163.088 146.902 163.577 147.561 168.645 153.568C170.183 155.428 171.581 157.404 171.72 158.024C171.86 158.645 172 160.892 172 163.024C172 167.286 171.511 168.759 169.658 170.309C168.785 171.007 168.12 171.123 163.717 171.162C160.956 171.201 156.587 171.433 154 171.704C150.366 172.092 148.199 172.092 144.389 171.743C136.315 171.007 128.871 169.883 124.991 168.798C118.456 166.976 110.662 162.636 108.425 159.575C107.831 158.761 106.922 157.559 106.398 156.978C105.174 155.544 104.406 152.638 104.161 148.685C103.986 146.166 104.231 143.841 105.419 136.09C106.188 130.859 107.237 124.736 107.691 122.449C109.229 114.815 109.613 111.714 109.438 107.297L109.299 103.15H111.046C111.99 103.15 113.318 103.421 113.982 103.731ZM99.4775 105.63C102.239 106.909 104.545 108.769 105.244 110.358C105.524 111.056 105.943 111.753 106.083 111.869C106.258 111.986 106.503 112.606 106.642 113.226C106.887 114.505 105.664 117.372 101.365 125.317C100.107 127.603 98.1494 131.672 96.996 134.424C93.431 142.872 92.3825 145.003 90.6699 147.251C89.7612 148.452 87.9787 150.933 86.6506 152.754C85.3574 154.575 84.0992 156.203 83.8546 156.358C83.6099 156.552 83.1206 156.978 82.7711 157.366C81.1634 159.226 75.6062 163.644 73.3694 164.923C70.8529 166.318 70.818 166.318 70.818 165.426C70.818 164.457 71.3422 163.489 72.95 161.551C76.2353 157.598 84.8681 138.648 90.6699 122.72C93.3611 115.318 95.3533 108.304 95.1087 107.374C94.8989 106.638 96.262 104.7 97.0309 104.7C97.2406 104.7 98.3241 105.126 99.4775 105.63ZM70.2588 123.34C72.95 125.356 74.9422 127.913 75.9557 130.626C76.7945 132.796 76.3402 136.284 74.348 143.647C72.216 151.436 71.3422 153.684 69.6297 155.738C67.3579 158.528 64.9463 159.613 57.2571 161.28C53.4825 162.094 49.2185 163.062 47.8205 163.411C46.3875 163.76 44.7448 163.954 44.1157 163.837C42.4031 163.489 37.1256 159.42 35.7625 157.404C33.6305 154.265 33.3159 153.258 33.5606 150.468C33.6655 149.111 33.6305 147.794 33.4558 147.561C33.281 147.329 32.8616 146.166 32.4422 145.003C32.0577 143.841 31.184 141.516 30.4849 139.849C28.8772 135.896 28.4229 134.153 28.9471 133.494C29.9257 132.176 35.0984 133.416 37.8595 135.625C39.9915 137.292 43.871 149.615 43.4516 153.258C43.3118 154.265 43.4167 154.808 43.7312 154.924C43.9759 155.04 46.2127 154.343 48.6942 153.374C51.1408 152.405 54.0766 151.359 55.1601 150.971C57.8513 150.119 59.2493 149.111 59.8085 147.6C60.0532 146.941 60.5075 144.538 60.8221 142.291C62.29 131.827 62.2551 132.602 61.626 131.944C61.1367 131.401 60.9269 131.362 60.0881 131.789C59.5639 132.06 58.2008 132.641 57.1173 133.029C55.9989 133.455 53.7621 134.501 52.1194 135.354C49.4981 136.749 48.869 136.943 47.2962 136.788C44.605 136.516 42.1585 134.463 42.1585 132.447C42.1585 131.905 48.6593 128.068 53.797 125.627C55.6494 124.736 57.5717 123.65 58.061 123.263C59.5289 121.984 61.4512 121.403 64.5968 121.403L67.6025 121.364L70.2588 123.34Z" stroke="black" stroke-width="6" stroke-linejoin="round"/>
</svg>

<svg width="192" height="192" viewBox="0 0 192 192" fill="none" xmlns="http://www.w3.org/2000/svg"><path d="M101.924 20.606c4.753.736 10.101 3.526 12.862 6.704 1.083 1.24 1.293 1.783 2.481 7.053.28 1.356-.105 4.418-1.013 7.945-.979 3.797-1.189 6.549-.524 6.82.838.388 6.71-1.356 9.751-2.868l2.761-1.395 3.6 1.008c4.788 1.356 6.745 2.48 7.724 4.418.769 1.472 1.013 3.72.594 4.999-.489 1.318-2.237 1.938-5.697 1.86-2.866-.039-3.635.078-6.116 1.124-1.573.62-4.369 1.55-6.222 2.015-1.852.504-4.089 1.356-4.963 1.938-1.817 1.162-3.32 3.681-3.599 6.006-.175 1.395-.105 1.512.943 1.938.629.233 1.713.426 2.412.426 1.817.04 4.124 1.318 5.872 3.256 1.747 1.976 1.852 2.867.629 4.65-.664.969-1.294 1.395-2.377 1.589-1.887.387-1.782.349-4.439 1.279-1.258.426-4.928 1.356-8.143 2.054l-5.907 1.279-2.307-.66c-2.866-.813-6.29-2.635-7.34-3.875l-.803-.93 2.202-1.046c1.223-.581 3.005-1.744 3.984-2.558 1.678-1.395 1.818-1.627 1.957-3.565.35-3.875-.873-5-5.417-4.96-3.53.077-5.627-.62-8.598-2.752-1.223-.891-2.936-1.938-3.81-2.364l-1.572-.775 1.363-.93c2.481-1.666 6.36-3.255 10.87-4.418 5.172-1.356 6.955-2.131 7.689-3.333.384-.658.524-3.061.699-10.385l.209-9.495-2.237-2.635c-2.516-2.945-3.949-5.464-4.648-8.06-.35-1.24-.384-1.745-.07-1.9.455-.194 4.02.078 7.2.543ZM48.344 32.27c1.189.427 2.971 1.357 3.95 2.093 3.04 2.287 8.423 7.983 9.122 9.688 1.888 4.535-.49 8.952-4.928 9.146-1.048.078-2.621-.039-3.495-.194-1.573-.27-1.608-.27-3.46 1.783-1.049 1.124-1.957 1.86-2.027 1.628-.07-.233.175-1.395.594-2.52.384-1.162.804-2.906.909-3.875.244-2.053-.385-3.642-2.866-7.556-2.062-3.217-3.6-6.976-3.88-9.456l-.21-2.015 2.063.27c1.118.156 3.04.621 4.229 1.008Zm14.61 24.764c2.447.93 3.6 2.015 3.88 3.681.454 2.752-1.398 6.51-3.39 6.898-3.81.814-4.51.892-4.614.504-.21-.659-2.167.233-9.507 4.224-6.815 3.76-10.59 5.31-16.357 6.782-3.215.814-3.39.814-5.871.194-3.11-.775-6.606-2.752-6.99-3.953-.245-.775-.14-.93 1.188-1.279 5.522-1.55 12.093-4.65 17.405-8.215 1.084-.698 5.173-2.985 9.087-5.038 8.948-4.69 11.255-5.27 15.17-3.798Zm89.404 23.135c1.782.97 4.928 4.302 6.431 6.782.804 1.318.873 1.705.664 3.876-.49 4.766-1.888 6.316-10.8 12.129-6.012 3.914-7.794 4.573-9.611 3.527-.56-.31-1.119-.969-1.224-1.434-.174-.736-.384-.775-1.887-.62-.909.077-2.761.62-4.124 1.201-1.328.543-2.517 1.008-2.587 1.008-.104 0 1.573-1.977 3.74-4.379 4.509-5.038 9.542-11.82 9.402-12.673-.14-.775-1.852-.658-9.332.62-8.807 1.512-15.343 3.023-21.495 5.038-6.92 2.21-11.498 3.566-14.679 4.225-2.097.465-2.726.465-4.543-.04-2.692-.774-3.635-1.472-3.111-2.402.49-.891 7.864-5.115 12.373-7.092 10.694-4.689 31.77-10.386 42.639-11.51 3.286-.348 5.173.04 8.144 1.744Zm-89.054 2.52c.769.193 1.782.813 2.236 1.356 1.294 1.511 1.433 2.751.525 4.96-.944 2.248-1.643 2.907-3.041 2.907-1.293 0-4.439 1.511-4.439 2.131 0 1.124-6.151 2.596-11.184 2.674-3.11.039-3.495-.039-5.592-1.201-1.258-.698-2.97-1.938-3.775-2.752l-1.538-1.472 3.46-1.473c1.888-.814 5.628-2.674 8.319-4.108 2.691-1.434 5.767-2.829 6.815-3.061 1.049-.233 2.237-.504 2.621-.582.91-.194 3.775.117 5.593.62Zm18.419 11.703c1.782.697 4.718 3.526 5.522 5.27 1.188 2.558 1.188 4.767.035 9.844-.7 3.061-1.363 5.154-2.027 6.2a6.965 6.965 0 0 1-5.942 3.333c-2.097 0-2.342-.31-3.11-3.682-.245-1.085-.7-2.751-1.05-3.759l-.558-1.821 1.293-3.527c.734-1.899 1.677-4.03 2.132-4.728.978-1.433 1.048-3.022.314-5.348-.28-.89-.524-1.782-.524-1.976 0-.504 2.447-.387 3.915.194Zm-17.091 9.378c1.398.736 2.132 1.395 2.516 2.286 1.468 3.527-.035 5.891-4.893 7.557-.769.272-2.447 1.163-3.705 1.977-3.005 1.976-4.019 2.286-7.864 2.286-4.194 0-6.815-1.085-9.646-3.991-2.237-2.287-2.202-3.101.175-4.069.978-.427 4.264-1.861 7.235-3.178 10.45-4.651 12.337-4.961 16.182-2.868Zm49.35-.039c1.817.814 4.194 3.488 4.998 5.581 1.398 3.604 1.363 5.038-.454 12.246-1.818 7.285-2.657 11.664-3.495 18.756-.56 4.573-.56 4.806.034 6.085.35.736.769 1.317.909 1.317.175 0 .28.194.28.426 0 1.396 4.299 4.069 8.877 5.581 5.173 1.627 18.419 2.713 23.941 1.938 7.34-1.047 7.445-1.163 8.319-6.162.349-1.938.734-3.294.978-3.217 1.783.775 1.888.737 2.132-.659.21-1.395.839-1.937.839-.775 0 .388.21.504.664.349.489-.155.699.039.874.736.21.969.699 1.628 5.767 7.635 1.538 1.86 2.936 3.836 3.075 4.456.14.621.28 2.868.28 5 0 4.262-.489 5.735-2.342 7.285-.873.698-1.538.814-5.941.853-2.761.039-7.13.271-9.717.542-3.634.388-5.801.388-9.611.039-8.074-.736-15.518-1.86-19.398-2.945-6.535-1.822-14.329-6.162-16.566-9.223-.594-.814-1.503-2.016-2.027-2.597-1.224-1.434-1.992-4.34-2.237-8.293-.175-2.519.07-4.844 1.258-12.595.769-5.231 1.818-11.354 2.272-13.641 1.538-7.634 1.922-10.735 1.747-15.152l-.139-4.147h1.747c.944 0 2.272.271 2.936.581Zm-14.504 1.899c2.761 1.279 5.067 3.139 5.766 4.728.28.698.699 1.395.839 1.511.175.117.42.737.559 1.357.245 1.279-.978 4.146-5.277 12.091-1.258 2.286-3.216 6.355-4.369 9.107-3.565 8.448-4.614 10.579-6.326 12.827-.909 1.201-2.691 3.682-4.02 5.503-1.293 1.821-2.55 3.449-2.795 3.604-.245.194-.734.62-1.084 1.008-1.608 1.86-7.165 6.278-9.402 7.557-2.516 1.395-2.551 1.395-2.551.503 0-.969.524-1.937 2.132-3.875 3.285-3.953 11.918-22.903 17.72-38.831 2.691-7.402 4.683-14.416 4.439-15.346-.21-.736 1.153-2.674 1.922-2.674.21 0 1.293.426 2.447.93Zm-29.22 17.71c2.692 2.016 4.684 4.573 5.698 7.286.838 2.17.384 5.658-1.608 13.021-2.132 7.789-3.006 10.037-4.718 12.091-2.272 2.79-4.684 3.875-12.373 5.542-3.774.814-8.038 1.782-9.436 2.131-1.433.349-3.076.543-3.705.426-1.713-.348-6.99-4.417-8.353-6.433-2.133-3.139-2.447-4.146-2.202-6.936.105-1.357.07-2.674-.105-2.907-.175-.232-.594-1.395-1.014-2.558-.384-1.162-1.258-3.487-1.957-5.154-1.608-3.953-2.062-5.696-1.538-6.355.979-1.318 6.151-.078 8.912 2.131 2.133 1.667 6.012 13.99 5.593 17.633-.14 1.007-.035 1.55.28 1.666.244.116 2.48-.581 4.962-1.55 2.447-.969 5.383-2.015 6.466-2.403 2.691-.852 4.09-1.86 4.649-3.371.244-.659.699-3.062 1.013-5.309 1.468-10.464 1.433-9.689.804-10.347-.49-.543-.7-.582-1.538-.155-.524.271-1.887.852-2.97 1.24-1.12.426-3.356 1.472-4.999 2.325-2.62 1.395-3.25 1.589-4.823 1.434-2.691-.272-5.138-2.325-5.138-4.341 0-.542 6.501-4.379 11.639-6.82 1.852-.891 3.775-1.977 4.264-2.364 1.468-1.279 3.39-1.86 6.536-1.86l3.006-.039 2.656 1.976Z" stroke="#000" stroke-width="6" stroke-linejoin="round"/></svg>
